bailout.site/trunk/media/images/charts/energy_final_charts/energy_direct_expenditures_billions.svg

<?xml version="1.0" encoding="UTF-8" standalone="no"?>
<svg
   xmlns:dc="http://purl.org/dc/elements/1.1/"
   xmlns:cc="http://creativecommons.org/ns#"
   xmlns:rdf="http://www.w3.org/1999/02/22-rdf-syntax-ns#"
   xmlns:svg="http://www.w3.org/2000/svg"
   xmlns="http://www.w3.org/2000/svg"
   xmlns:sodipodi="http://sodipodi.sourceforge.net/DTD/sodipodi-0.dtd"
   xmlns:inkscape="http://www.inkscape.org/namespaces/inkscape"
   height="350"
   version="1.1"
   width="500"
   id="svg2"
   inkscape:version="0.47pre4 r22446"
   sodipodi:docname="energy_direct_expenditures_billions.svg"
   inkscape:export-filename="/home/kpwebb/workspace/subsidyscope_main/bailout.site/trunk/media/images/charts/energy_final_charts/energy_direct_expenditures_billions.png"
   inkscape:export-xdpi="90"
   inkscape:export-ydpi="90">
  <metadata
     id="metadata73">
    <rdf:RDF>
      <cc:Work
         rdf:about="">
        <dc:format>image/svg+xml</dc:format>
        <dc:type
           rdf:resource="http://purl.org/dc/dcmitype/StillImage" />
        <dc:title></dc:title>
      </cc:Work>
    </rdf:RDF>
  </metadata>
  <defs
     id="defs71">
    <inkscape:perspective
       sodipodi:type="inkscape:persp3d"
       inkscape:vp_x="0 : 175 : 1"
       inkscape:vp_y="0 : 1000 : 0"
       inkscape:vp_z="500 : 175 : 1"
       inkscape:persp3d-origin="250 : 116.66667 : 1"
       id="perspective75" />
  </defs>
  <sodipodi:namedview
     pagecolor="#ffffff"
     bordercolor="#666666"
     borderopacity="1"
     objecttolerance="10"
     gridtolerance="10"
     guidetolerance="10"
     inkscape:pageopacity="0"
     inkscape:pageshadow="2"
     inkscape:window-width="944"
     inkscape:window-height="715"
     id="namedview69"
     showgrid="false"
     inkscape:zoom="1.5277688"
     inkscape:cx="255.71016"
     inkscape:cy="216.66742"
     inkscape:window-x="1541"
     inkscape:window-y="157"
     inkscape:window-maximized="0"
     inkscape:current-layer="svg2" />
  <style
     type="text/css"
     id="style4">
		

.x-axis-path, .y-gridline, .x-notch { fill:none; stroke: #a7a9ac; stroke-width:1; }



.y-gridline { stroke-width: 1; }

.y-axis-path, .y-axis-path2, .x-notch-left, .x-notch-right { display: none;}



.x-axis-label, .data-point-label {font-size: 12px; font-weight:normal; font-family: sans-serif; fill: #58595b; text-anchor:middle;}

.y-axis-label {font-size: 12px; font-family: helvetica; fill: #a7a9ac; text-anchor:end;}



.series-1-line { fill: none; stroke: #bf5004; stroke-width:2; }



.series-2-line { fill: none; stroke: #336699; stroke-width: 2;}

	</style>
  <rect
     height="362.43643"
     width="500"
     x="0"
     y="-12.436437"
     id="rect6"
     style="fill:#ffffff" />
  <g
     id="grid"
     transform="translate(40, 40)">
    <g
       class="x-axis"
       id="x_axis">
      <path
         class="x-axis-path"
         d="M 0 255 L 420 255"
         id="path10" />
      <path
         class="x-notch-left"
         d="M 0 255, L 0 265"
         id="path12" />
      <path
         class="x-notch-right"
         d="M 420 255, L 420 265"
         id="path14" />
    </g>
    <g
       class="y-axis"
       id="y_axis">
      <path
         class="y-axis-path"
         d="M 0 255 L 0 0"
         id="path17" />
      <path
         class="y-axis-path-2"
         d="M 420 255 L 420 0"
         id="path19" />
      <path
         class="y-gridline"
         d="M 0 0 L 420 0"
         id="path21" />
      <text
         class="y-axis-label"
         x="-5"
         y="0"
         id="text23"
         style="font-size:12px;text-anchor:end;fill:#a7a9ac;font-family:helvetica">$20.5</text>
      <path
         class="y-gridline"
         d="M 0 42 L 420 42"
         id="path25" />
      <text
         class="y-axis-label"
         x="-5"
         y="42"
         id="text27"
         style="font-size:12px;text-anchor:end;fill:#a7a9ac;font-family:helvetica">$17.1</text>
      <path
         class="y-gridline"
         d="M 0 84 L 420 84"
         id="path29" />
      <text
         class="y-axis-label"
         x="-5"
         y="84"
         id="text31"
         style="font-size:12px;text-anchor:end;fill:#a7a9ac;font-family:helvetica">$13.6</text>
      <path
         class="y-gridline"
         d="M 0 126 L 420 126"
         id="path33" />
      <text
         class="y-axis-label"
         x="-5"
         y="126"
         id="text35"
         style="font-size:12px;text-anchor:end;fill:#a7a9ac;font-family:helvetica">$10.2</text>
      <path
         class="y-gridline"
         d="M 0 168 L 420 168"
         id="path37" />
      <text
         class="y-axis-label"
         x="-5"
         y="168"
         id="text39"
         style="font-size:12px;text-anchor:end;fill:#a7a9ac;font-family:helvetica">$6.8</text>
      <path
         class="y-gridline"
         d="M 0 210 L 420 210"
         id="path41" />
      <text
         class="y-axis-label"
         x="-5"
         y="210"
         id="text43"
         style="font-size:12px;text-anchor:end;fill:#a7a9ac;font-family:helvetica">$3.4</text>
    </g>
    <g
       id="g45">
      <path
         class="series-1-line"
         d="M 35 214.948091882 L 73 213.97278079 L 112 188.397428832 L 151 196.475474479 L 190 204.968401987 L 229 201.747962605 L 268 190.877313663 L 307 201.084585514 L 346 197.309492953 L 385 23.1818181818"
         id="path47" />
    </g>
    <text
       class="x-axis-label"
       x="35.0"
       y="270"
       id="text49">
			2000
		</text>
    <path
       class="x-notch"
       d="M 73.8888888889 255 L 73.8888888889 260"
       id="path51" />
    <text
       class="x-axis-label"
       x="112.777777778"
       y="270"
       id="text53">
			2002
		</text>
    <path
       class="x-notch"
       d="M 151.666666667 255 L 151.666666667 260"
       id="path55" />
    <text
       class="x-axis-label"
       x="190.555555556"
       y="270"
       id="text57">
			2004
		</text>
    <path
       class="x-notch"
       d="M 229.444444444 255 L 229.444444444 260"
       id="path59" />
    <text
       class="x-axis-label"
       x="268.333333333"
       y="270"
       id="text61">
			2006
		</text>
    <path
       class="x-notch"
       d="M 307.222222222 255 L 307.222222222 260"
       id="path63" />
    <text
       class="x-axis-label"
       x="346.111111111"
       y="270"
       id="text65">
			2008
		</text>
    <path
       class="x-notch"
       d="M 385.0 255 L 385.0 260"
       id="path67" />
  </g>
  <text
     xml:space="preserve"
     style="font-size:16px;font-style:normal;font-weight:bold;text-align:center;text-anchor:middle;fill:#000000;fill-opacity:1;stroke:none;font-family:sans;-inkscape-font-specification:Andale Mono Bold"
     x="249.20154"
     y="3.5253115"
     id="text2881"><tspan
       sodipodi:role="line"
       id="tspan2883"
       x="249.20154"
       y="3.5253115">Direct Expenditures in the Energy Sector FY2000-2009</tspan><tspan
       sodipodi:role="line"
       x="249.20154"
       y="23.525311"
       id="tspan2885">($ billions)</tspan></text>
</svg>

<?xml version="1.0" encoding="UTF-8" standalone="no"?>
<svg
   xmlns:dc="http://purl.org/dc/elements/1.1/"
   xmlns:cc="http://creativecommons.org/ns#"
   xmlns:rdf="http://www.w3.org/1999/02/22-rdf-syntax-ns#"
   xmlns:svg="http://www.w3.org/2000/svg"
   xmlns="http://www.w3.org/2000/svg"
   xmlns:sodipodi="http://sodipodi.sourceforge.net/DTD/sodipodi-0.dtd"
   xmlns:inkscape="http://www.inkscape.org/namespaces/inkscape"
   height="350"
   version="1.1"
   width="500"
   id="svg2"
   inkscape:version="0.47pre4 r22446"
   sodipodi:docname="energy_direct_expenditures_billions.svg"
   inkscape:export-filename="/home/kpwebb/workspace/subsidyscope_main/bailout.site/trunk/media/images/charts/energy_final_charts/energy_direct_expenditures_billions.png"
   inkscape:export-xdpi="90"
   inkscape:export-ydpi="90">
  <metadata
     id="metadata73">
    <rdf:RDF>
      <cc:Work
         rdf:about="">
        <dc:format>image/svg+xml</dc:format>
        <dc:type
           rdf:resource="http://purl.org/dc/dcmitype/StillImage" />
        <dc:title></dc:title>
      </cc:Work>
    </rdf:RDF>
  </metadata>
  <defs
     id="defs71">
    <marker
       inkscape:stockid="Arrow2Lend"
       orient="auto"
       refY="0.0"
       refX="0.0"
       id="Arrow2Lend"
       style="overflow:visible;">
      <path
         id="path3662"
         style="font-size:12.0;fill-rule:evenodd;stroke-width:0.62500000;stroke-linejoin:round;"
         d="M 8.7185878,4.0337352 L -2.2072895,0.016013256 L 8.7185884,-4.0017078 C 6.9730900,-1.6296469 6.9831476,1.6157441 8.7185878,4.0337352 z "
         transform="scale(1.1) rotate(180) translate(1,0)" />
    </marker>
    <inkscape:perspective
       sodipodi:type="inkscape:persp3d"
       inkscape:vp_x="0 : 175 : 1"
       inkscape:vp_y="0 : 1000 : 0"
       inkscape:vp_z="500 : 175 : 1"
       inkscape:persp3d-origin="250 : 116.66667 : 1"
       id="perspective75" />
  </defs>
  <sodipodi:namedview
     pagecolor="#ffffff"
     bordercolor="#666666"
     borderopacity="1"
     objecttolerance="10"
     gridtolerance="10"
     guidetolerance="10"
     inkscape:pageopacity="0"
     inkscape:pageshadow="2"
     inkscape:window-width="1920"
     inkscape:window-height="1059"
     id="namedview69"
     showgrid="false"
     inkscape:zoom="1.5277688"
     inkscape:cx="151.63682"
     inkscape:cy="215.35832"
     inkscape:window-x="1400"
     inkscape:window-y="0"
     inkscape:window-maximized="1"
     inkscape:current-layer="svg2" />
  <style
     type="text/css"
     id="style4">
		

.x-axis-path, .y-gridline, .x-notch { fill:none; stroke: #a7a9ac; stroke-width:1; }



.y-gridline { stroke-width: 1; }

.y-axis-path, .y-axis-path2, .x-notch-left, .x-notch-right { display: none;}



.x-axis-label, .data-point-label {font-size: 12px; font-weight:normal; font-family: sans-serif; fill: #58595b; text-anchor:middle;}

.y-axis-label {font-size: 12px; font-family: helvetica; fill: #a7a9ac; text-anchor:end;}



.series-1-line { fill: none; stroke: #bf5004; stroke-width:2; }



.series-2-line { fill: none; stroke: #336699; stroke-width: 2;}

	</style>
  <rect
     style="fill:#ffffff;fill-opacity:1;stroke:none"
     id="rect4086"
     width="522.98492"
     height="359.34756"
     x="-13.090986"
     y="-23.093102" />
  <g
     id="grid"
     transform="translate(40,40)">
    <g
       class="x-axis"
       id="x_axis">
      <path
         class="x-axis-path"
         d="m 0,255 420,0"
         id="path10"
         style="fill:none;stroke:#a7a9ac;stroke-width:1" />
      <path
         class="x-notch-left"
         d="M 0,255"
         id="path12"
         style="display:none" />
      <path
         class="x-notch-right"
         d="M 420,255"
         id="path14"
         style="display:none" />
    </g>
    <g
       class="y-axis"
       id="y_axis">
      <path
         class="y-axis-path"
         d="M 0,255 0,0"
         id="path17"
         style="display:none" />
      <path
         class="y-axis-path-2"
         d="M 420,255 420,0"
         id="path19" />
      <path
         class="y-gridline"
         d="M 0,0 420,0"
         id="path21"
         style="fill:none;stroke:#a7a9ac;stroke-width:1" />
      <text
         class="y-axis-label"
         x="-5"
         y="0"
         id="text23"
         style="font-size:12px;text-anchor:end;fill:#a7a9ac;font-family:helvetica">$20.5</text>
      <path
         class="y-gridline"
         d="m 0,42 420,0"
         id="path25"
         style="fill:none;stroke:#a7a9ac;stroke-width:1" />
      <text
         class="y-axis-label"
         x="-5"
         y="42"
         id="text27"
         style="font-size:12px;text-anchor:end;fill:#a7a9ac;font-family:helvetica">$17.1</text>
      <path
         class="y-gridline"
         d="m 0,84 420,0"
         id="path29"
         style="fill:none;stroke:#a7a9ac;stroke-width:1" />
      <text
         class="y-axis-label"
         x="-5"
         y="84"
         id="text31"
         style="font-size:12px;text-anchor:end;fill:#a7a9ac;font-family:helvetica">$13.6</text>
      <path
         class="y-gridline"
         d="m 0,126 420,0"
         id="path33"
         style="fill:none;stroke:#a7a9ac;stroke-width:1" />
      <text
         class="y-axis-label"
         x="-5"
         y="126"
         id="text35"
         style="font-size:12px;text-anchor:end;fill:#a7a9ac;font-family:helvetica">$10.2</text>
      <path
         class="y-gridline"
         d="m 0,168 420,0"
         id="path37"
         style="fill:none;stroke:#a7a9ac;stroke-width:1" />
      <text
         class="y-axis-label"
         x="-5"
         y="168"
         id="text39"
         style="font-size:12px;text-anchor:end;fill:#a7a9ac;font-family:helvetica">$6.8</text>
      <path
         class="y-gridline"
         d="m 0,210 420,0"
         id="path41"
         style="fill:none;stroke:#a7a9ac;stroke-width:1" />
      <text
         class="y-axis-label"
         x="-5"
         y="210"
         id="text43"
         style="font-size:12px;text-anchor:end;fill:#a7a9ac;font-family:helvetica">$3.4</text>
    </g>
    <g
       id="g45">
      <path
         class="series-1-line"
         d="m 35,214.94809 38,-0.97531 39,-25.57535 39,8.07804 39,8.49293 39,-3.22044 39,-10.87065 39,10.20728 39,-3.7751 39,-174.127672"
         id="path47"
         style="fill:none;stroke:#bf5004;stroke-width:2" />
    </g>
    <text
       class="x-axis-label"
       x="35"
       y="270"
       id="text49"
       style="font-size:12px;font-weight:normal;text-anchor:middle;fill:#58595b;font-family:sans-serif">2000</text>
    <path
       class="x-notch"
       d="m 73.888889,255 0,5"
       id="path51"
       style="fill:none;stroke:#a7a9ac;stroke-width:1" />
    <text
       class="x-axis-label"
       x="112.77778"
       y="270"
       id="text53"
       style="font-size:12px;font-weight:normal;text-anchor:middle;fill:#58595b;font-family:sans-serif">2002</text>
    <path
       class="x-notch"
       d="m 151.66667,255 0,5"
       id="path55"
       style="fill:none;stroke:#a7a9ac;stroke-width:1" />
    <text
       class="x-axis-label"
       x="190.55556"
       y="270"
       id="text57"
       style="font-size:12px;font-weight:normal;text-anchor:middle;fill:#58595b;font-family:sans-serif">2004</text>
    <path
       class="x-notch"
       d="m 229.44444,255 0,5"
       id="path59"
       style="fill:none;stroke:#a7a9ac;stroke-width:1" />
    <text
       class="x-axis-label"
       x="268.33334"
       y="270"
       id="text61"
       style="font-size:12px;font-weight:normal;text-anchor:middle;fill:#58595b;font-family:sans-serif">2006</text>
    <path
       class="x-notch"
       d="m 307.22222,255 0,5"
       id="path63"
       style="fill:none;stroke:#a7a9ac;stroke-width:1" />
    <text
       class="x-axis-label"
       x="346.11111"
       y="270"
       id="text65"
       style="font-size:12px;font-weight:normal;text-anchor:middle;fill:#58595b;font-family:sans-serif">2008</text>
    <path
       class="x-notch"
       d="m 385,255 0,5"
       id="path67"
       style="fill:none;stroke:#a7a9ac;stroke-width:1" />
  </g>
  <text
     xml:space="preserve"
     style="font-size:16px;font-style:normal;font-weight:bold;text-align:center;text-anchor:middle;fill:#000000;fill-opacity:1;stroke:none;font-family:sans;-inkscape-font-specification:Andale Mono Bold"
     x="249.20154"
     y="3.5253115"
     id="text2881"><tspan
       sodipodi:role="line"
       id="tspan2883"
       x="249.20154"
       y="3.5253115">Direct Expenditures in the Energy Sector FY2000-2009</tspan><tspan
       sodipodi:role="line"
       x="249.20154"
       y="23.525311"
       id="tspan2885">($ billions)</tspan></text>
  <text
     xml:space="preserve"
     style="font-size:16px;font-style:normal;font-weight:normal;fill:#000000;fill-opacity:1;stroke:none;font-family:sans;-inkscape-font-specification:sans"
     x="301.09268"
     y="96.034866"
     id="text2848"><tspan
       sodipodi:role="line"
       id="tspan2850"
       x="301.09268"
       y="96.034866"
       style="font-size:12px;font-weight:bold;-inkscape-font-specification:Andale Mono Bold">Stimulus </tspan><tspan
       sodipodi:role="line"
       x="301.09268"
       y="111.03487"
       id="tspan2852"
       style="font-size:12px;font-weight:bold;-inkscape-font-specification:Andale Mono Bold">Funds</tspan></text>
  <flowRoot
     xml:space="preserve"
     id="flowRoot2854"
     style="fill:black;stroke:none;stroke-opacity:1;stroke-width:1px;stroke-linejoin:miter;stroke-linecap:butt;fill-opacity:1;font-family:sans;font-style:normal;font-weight:normal;font-size:16;-inkscape-font-specification:sans"><flowRegion
       id="flowRegion2856"><rect
         id="rect2858"
         width="67.418579"
         height="17.672831"
         x="312.87457"
         y="109.7804" /></flowRegion><flowPara
       id="flowPara2860"></flowPara></flowRoot>  <path
     style="fill:none;stroke:#000000;stroke-width:1px;stroke-linecap:butt;stroke-linejoin:miter;stroke-opacity:1;marker-end:url(#Arrow2Lend)"
     d="m 358.03847,116.3259 39.9275,13.09099"
     id="path2864" />
</svg>
